public/formular-icons/operators/Limit.svg

<svg style="vertical-align:0" xmlns="http://www.w3.org/2000/svg" width="3.143ex" height="1.57ex" viewBox="0 -694 1389 694" xmlns:xlink="http://www.w3.org/1999/xlink"><defs><path id="a" d="M42 46h14q39 0 47 14v64q0 19 1 43t0 50 0 55 0 57v213q0 26-1 44t0 17q-3 19-14 25t-45 9H26v23q0 23 2 23l10 1q10 1 29 2t37 2 37 2 30 3 11 1h3V379q0-317 1-319 4-8 12-11 21-3 49-3h16V0h-8l-23 1q-23 1-49 1t-38 1-38 0-50-2L34 0h-8v46h16Z"/><path id="b" d="M69 609q0 28 18 44t44 16q23-2 40-17t17-43q0-30-17-45t-42-15q-25 0-42 15t-18 45ZM247 0q-15 3-104 3h-37Q80 3 56 1L34 0h-8v46h16q28 0 49 3 9 4 11 11t2 42v191q0 52-2 66t-14 19q-14 7-47 7H30v23q0 23 2 23l10 1q10 1 28 2t36 2 36 2 29 3 11 1h3V62q5-10 12-12t35-4h23V0h-8Z"/><path id="c" d="M41 46h14q39 0 47 14v62q0 17 1 39t0 42v66q0 35-1 59v23q-3 19-14 25t-45 9H25v23q0 23 2 23l10 1q10 1 28 2t37 2q17 1 36 2t29 3 11 1h3v-40q0-38 1-38t5 5 12 15 19 18 29 19 38 16q20 5 51 5 15 0 28-2t23-6 19-8 15-9 11-11 9-11 7-11 4-10 3-8l2-5 3 4 6 8q3 4 9 11t13 13 15 13 20 12 23 10 26 7 31 3q126 0 137-113 1-7 1-139v-86q0-38 2-45t11-10q21-3 49-3h16V0h-8l-23 1q-24 1-51 1t-38 1Q596 3 587 0h-8v46h16q61 0 61 16 1 2 1 138-1 135-2 143-6 28-20 42t-24 17-26 2q-45 0-79-34-27-27-34-55t-8-83V108q0-30 1-40t3-13 9-6q21-3 49-3h16V0h-8l-24 1q-23 1-50 1t-38 1Q319 3 310 0h-8v46h16q61 0 61 16 1 2 1 138-1 135-2 143-6 28-20 42t-24 17-26 2q-45 0-79-34-27-27-34-55t-8-83V108q0-30 1-40t3-13 9-6q21-3 49-3h16V0h-8l-23 1q-24 1-51 1t-38 1Q42 3 33 0h-8v46h16Z"/></defs><g stroke="currentColor" fill="currentColor" stroke-width="0"><g transform="scale(1 -1)"><use data-c="6C" xlink:href="#a"/><use data-c="69" xlink:href="#b" transform="translate(278)"/><use data-c="6D" xlink:href="#c" transform="translate(556)"/></g></g></svg>

<svg style="vertical-align: 0" xmlns="http://www.w3.org/2000/svg" width="3.143ex" height="1.57ex" role="img" focusable="false" viewBox="0 -694 1389 694" xmlns:xlink="http://www.w3.org/1999/xlink"><defs><path id="MJX-18-TEX-N-6C" d="M42 46H56Q95 46 103 60V68Q103 77 103 91T103 124T104 167T104 217T104 272T104 329Q104 366 104 407T104 482T104 542T103 586T103 603Q100 622 89 628T44 637H26V660Q26 683 28 683L38 684Q48 685 67 686T104 688Q121 689 141 690T171 693T182 694H185V379Q185 62 186 60Q190 52 198 49Q219 46 247 46H263V0H255L232 1Q209 2 183 2T145 3T107 3T57 1L34 0H26V46H42Z"></path><path id="MJX-18-TEX-N-69" d="M69 609Q69 637 87 653T131 669Q154 667 171 652T188 609Q188 579 171 564T129 549Q104 549 87 564T69 609ZM247 0Q232 3 143 3Q132 3 106 3T56 1L34 0H26V46H42Q70 46 91 49Q100 53 102 60T104 102V205V293Q104 345 102 359T88 378Q74 385 41 385H30V408Q30 431 32 431L42 432Q52 433 70 434T106 436Q123 437 142 438T171 441T182 442H185V62Q190 52 197 50T232 46H255V0H247Z"></path><path id="MJX-18-TEX-N-6D" d="M41 46H55Q94 46 102 60V68Q102 77 102 91T102 122T103 161T103 203Q103 234 103 269T102 328V351Q99 370 88 376T43 385H25V408Q25 431 27 431L37 432Q47 433 65 434T102 436Q119 437 138 438T167 441T178 442H181V402Q181 364 182 364T187 369T199 384T218 402T247 421T285 437Q305 442 336 442Q351 442 364 440T387 434T406 426T421 417T432 406T441 395T448 384T452 374T455 366L457 361L460 365Q463 369 466 373T475 384T488 397T503 410T523 422T546 432T572 439T603 442Q729 442 740 329Q741 322 741 190V104Q741 66 743 59T754 49Q775 46 803 46H819V0H811L788 1Q764 2 737 2T699 3Q596 3 587 0H579V46H595Q656 46 656 62Q657 64 657 200Q656 335 655 343Q649 371 635 385T611 402T585 404Q540 404 506 370Q479 343 472 315T464 232V168V108Q464 78 465 68T468 55T477 49Q498 46 526 46H542V0H534L510 1Q487 2 460 2T422 3Q319 3 310 0H302V46H318Q379 46 379 62Q380 64 380 200Q379 335 378 343Q372 371 358 385T334 402T308 404Q263 404 229 370Q202 343 195 315T187 232V168V108Q187 78 188 68T191 55T200 49Q221 46 249 46H265V0H257L234 1Q210 2 183 2T145 3Q42 3 33 0H25V46H41Z"></path></defs><g stroke="currentColor" fill="currentColor" stroke-width="0" transform="scale(1,-1)"><g data-mml-node="math"><g data-mml-node="mo"><use data-c="6C" xlink:href="#MJX-18-TEX-N-6C"></use><use data-c="69" xlink:href="#MJX-18-TEX-N-69" transform="translate(278,0)"></use><use data-c="6D" xlink:href="#MJX-18-TEX-N-6D" transform="translate(556,0)"></use></g></g></g></svg>
